X: 19316
T: Jack Daniels'
R: reel
M: 4/4
K: Amajor
a2 ea (3f=ga ec|Acaf e2 ce|fddd d2 df|eccc cB B/B/B|
a2 ea (3f=ga ec|Acaf e2 ce|f2 ec e2 fe|c2 Bd cA A/A/A:|
ecBc AcBc|Acaf e2 ce|fdcd Adcd|ABde fecd|
ecBc AcBc|Acaf e2 ce|f2 ec e2 fe|c2 Bd cA A/A/A:|

